2/src/images/twitter.svg

<svg width="30" height="24" viewBox="0 0 30 24" fill="none" xmlns="http://www.w3.org/2000/svg">
<path fill-rule="evenodd" clip-rule="evenodd" d="M9.22744 23.5742C20.3121 23.5742 26.3776 14.6747 26.3776 6.9702C26.3776 6.71983 26.3776 6.46946 26.3658 6.21909C27.5413 5.3997 28.5639 4.36408 29.375 3.1919C28.2936 3.6585 27.1299 3.96577 25.9074 4.11371C27.1534 3.39675 28.1055 2.24732 28.5639 0.881674C27.4002 1.55312 26.1072 2.0311 24.7319 2.29285C23.627 1.1548 22.0636 0.449219 20.3356 0.449219C17.0091 0.449219 14.3055 3.06671 14.3055 6.28737C14.3055 6.74259 14.3642 7.18642 14.4583 7.61888C9.45078 7.37989 5.0075 5.04691 2.03356 1.51898C1.51636 2.38389 1.22249 3.38537 1.22249 4.45512C1.22249 6.48084 2.29217 8.26756 3.90256 9.31456C2.91517 9.28042 1.98654 9.01867 1.17547 8.58621C1.17547 8.60897 1.17547 8.63174 1.17547 8.66588C1.17547 11.4882 3.25605 13.8553 6.00665 14.3902C5.5012 14.5268 4.97224 14.5951 4.41977 14.5951C4.03186 14.5951 3.65571 14.5609 3.29132 14.4926C4.05537 16.8143 6.28877 18.4986 8.92182 18.5441C6.85299 20.1146 4.2552 21.0478 1.43407 21.0478C0.952131 21.0478 0.470188 21.025 0 20.9681C2.65656 22.6069 5.83033 23.5742 9.22744 23.5742Z" fill="#7F7F7F"/>
</svg>

<svg width="30" height="24" fill="none" xmlns="http://www.w3.org/2000/svg"><path fill-rule="evenodd" clip-rule="evenodd" d="M9.227 23.574c11.085 0 17.15-8.9 17.15-16.604 0-.25 0-.5-.011-.75a12.07 12.07 0 003.009-3.028 12.53 12.53 0 01-3.468.922A5.91 5.91 0 0028.564.882a12.232 12.232 0 01-3.832 1.41A6.11 6.11 0 0020.336.45c-3.327 0-6.03 2.618-6.03 5.838 0 .456.058.9.152 1.332-5.007-.24-9.45-2.572-12.424-6.1a5.695 5.695 0 00-.812 2.936c0 2.026 1.07 3.813 2.68 4.86a6.25 6.25 0 01-2.727-.729v.08c0 2.822 2.081 5.19 4.832 5.724a6.057 6.057 0 01-1.587.205c-.388 0-.764-.034-1.129-.102.764 2.321 2.998 4.006 5.63 4.051a12.344 12.344 0 01-7.487 2.504c-.482 0-.964-.023-1.434-.08a17.559 17.559 0 009.227 2.606z" fill="#7F7F7F"/></svg>
